X:1
T:Christus, der ist mein Leben
T:Christus, der ist mein Leben
T:For Guitar
T:Johann Sebastian Bach 'Arrangement' by leavewe
C:Bach
%%score { ( 1 2 3 4 ) | ( 5 6 7 8 ) }
L:1/8
Q:1/4=68
M:4/4
K:F
V:1 treble-8 nm="Guitar" snm="Guit."
V:2 treble-8 
V:3 treble-8 
V:4 treble-8 
V:5 tab stafflines=6 strings=E2,A2,D3,G3,B3,E4 nostems 
V:6 tab stafflines=6 strings=E2,A2,D3,G3,B3,E4 nostems 
V:7 tab stafflines=6 strings=E2,A2,D3,G3,B3,E4 nostems 
V:8 tab stafflines=6 strings=E2,A2,D3,G3,B3,E4 nostems 
V:1
 F,2 | F2 E2 _E2 D2 | CDEC !fermata!F2 B,2 | A,2 G,2 F,A, C2 | !fermata!F,4 z2 F2 | =B,2 C2 DEAG | %6
 x D G2 !fermata!C2 F,2 | G,2 A,2 B,2 C2 | !fermata!F,6 |] %9
V:2
 A2 | c2 c2 c2 d2 | G2 c2 c2 B2 | c2 dB c2 c2 | c4 x2 f2 | f2 e2- ed c2- | c2 =B2 e2 c2 | %7
 B2 c2 d2 c>B | A6 |] %9
V:3
 C2 | x8 | EFGE x2 F2 | F3 E F3 E | F4 x2 A2- | AG- Gc/d/ A2 x2 | A2 x2 G2 F2- | FE F2 F2 E2 | %8
 C6 |] %9
V:4
 F2 | A2 G2 A2 B2 | c4 A2 d2 | x2 B2 A2 G2 | A4 x2 c2 | d2 x2 f2 e2 | d4 c2 A2 | x2 A2 G2 G2 | %8
 F6 |] %9
V:5
 !6!F,,2 | !4!F,2 !4!E,2 !4!_E,2 !4!D,2 | !5!C, !5!D, !4!E, !5!C, !fermata!!4!F,2 !5!B,,2 | %3
 !5!A,,2 !6!G,,2 !6!F,, !5!A,, !5!C,2 | !fermata!!6!F,,4 x2 !4!F,2 | %5
 !5!=B,,2 !5!C,2 !4!D, !4!E, !3!A, !3!G, | x !4!D, !3!G,2 !fermata!!5!C,2 !6!F,,2 | %7
 !6!G,,2 !5!A,,2 !5!B,,2 !5!C,2 | !fermata!!6!F,,6 |] %9
V:6
 !3!A,2 | !2!C2 !2!C2 !2!C2 !2!D2 | !3!G,2 !2!C2 !2!C2 !3!B,2 | !2!C2 !2!D !3!B, !2!C2 !2!C2 | %4
 !2!C4 x2 !1!F2 | !1!F2 !1!E2- !2!E !2!D !2!C2- | !3!C2 !2!=B,2 !1!E2 !2!C2 | %7
 !3!B,2 !2!C2 !2!D2 !2!C3/2 !3!B,/ | !3!A,6 |] %9
V:7
 !5!C,2 | x8 | !4!E, !4!F, !3!G, !4!E, x2 !4!F,2 | !4!F,3 !4!E, !4!F,3 !4!E, | !4!F,4 x2 !3!A,2- | %5
 !3!A, !3!G,- !3!G, !2!C/ !2!D/ !3!A,2 x2 | !4!A,2 x2 !3!G,2 !4!F,2- | %7
 !4!F, !4!E, !4!F,2 !4!F,2 !4!E,2 | !5!C,6 |] %9
V:8
 !4!F,2 | !3!A,2 !3!G,2 !3!A,2 !3!B,2 | !2!C4 !3!A,2 !2!D2 | x2 !3!B,2 !3!A,2 !3!G,2 | %4
 !3!A,4 x2 !2!C2 | !2!D2 x2 !1!F2 !1!E2 | !2!D4 !2!C2 !3!A,2 | x2 !3!A,2 !3!G,2 !3!G,2 | !4!F,6 |] %9

